.icons/Gruvbox-Plus-Dark/apps/16/webby.svg

<svg width="16" height="16" version="1.1" xmlns="http://www.w3.org/2000/svg">
  <defs>
    <style type="text/css" id="current-color-scheme">.ColorScheme-Text { color:#ebdbb2; } .ColorScheme-Highlight { color:#458588; }</style>
  </defs>
  <path class="ColorScheme-Text" fill="currentColor" d="m13.76 2.015c0.08-0.291 0.278-0.537 0.541-0.681 0.266-0.148 0.579-0.182 0.868-0.099 0.294 0.08 0.541 0.277 0.686 0.538 0.149 0.265 0.183 0.575 0.099 0.863l-3.223 11.22c-0.347 1.209-1.088 1.279-1.653 0.155l-3.079-6.116-3.079 6.116c-0.565 1.124-1.306 1.054-1.653-0.155l-3.223-11.22c-0.084-0.288-0.05-0.598 0.099-0.863 0.145-0.261 0.392-0.458 0.686-0.538 0.289-0.083 0.602-0.049 0.868 0.099 0.263 0.144 0.461 0.39 0.541 0.681l2.244 7.791 2.493-4.956c0.565-1.124 1.483-1.124 2.048 0l2.493 4.956 2.244-7.791z"/>
</svg>

<svg xmlns="http://www.w3.org/2000/svg" style="isolation:isolate" width="16" height="16" viewBox="0 0 16 16">
 <defs>
  <style id="current-color-scheme" type="text/css">
   .ColorScheme-Text { color:#ebdbb2; } .ColorScheme-Highlight { color:#458588; }
  </style>
  <linearGradient id="arrongin" x1="0%" x2="0%" y1="0%" y2="100%">
   <stop offset="0%" style="stop-color:#d79921; stop-opacity:1"/>
   <stop offset="100%" style="stop-color:#b57614; stop-opacity:1"/>
  </linearGradient>
  <linearGradient id="aurora" x1="0%" x2="0%" y1="0%" y2="100%">
   <stop offset="0%" style="stop-color:#83a598; stop-opacity:1"/>
   <stop offset="100%" style="stop-color:#b16286; stop-opacity:1"/>
  </linearGradient>
  <linearGradient id="fitdance" x1="0%" x2="0%" y1="0%" y2="100%">
   <stop offset="0%" style="stop-color:#8ec07c; stop-opacity:1"/>
   <stop offset="100%" style="stop-color:#458588; stop-opacity:1"/>
  </linearGradient>
  <linearGradient id="oomox" x1="0%" x2="0%" y1="0%" y2="100%">
   <stop offset="0%" style="stop-color:#458588; stop-opacity:1"/>
   <stop offset="100%" style="stop-color:#928374; stop-opacity:1"/>
  </linearGradient>
  <linearGradient id="rainblue" x1="0%" x2="0%" y1="0%" y2="100%">
   <stop offset="0%" style="stop-color:#b8bb26; stop-opacity:1"/>
   <stop offset="100%" style="stop-color:#076678; stop-opacity:1"/>
  </linearGradient>
  <linearGradient id="sunrise" x1="0%" x2="0%" y1="0%" y2="100%">
   <stop offset="0%" style="stop-color: #fe8019; stop-opacity:1"/>
   <stop offset="100%" style="stop-color: #fabd2f; stop-opacity:1"/>
  </linearGradient>
  <linearGradient id="telinkrin" x1="0%" x2="0%" y1="0%" y2="100%">
   <stop offset="0%" style="stop-color: #83a598; stop-opacity:1"/>
   <stop offset="100%" style="stop-color: #83a598; stop-opacity:1"/>
  </linearGradient>
  <linearGradient id="60spsycho" x1="0%" x2="0%" y1="0%" y2="100%">
   <stop offset="0%" style="stop-color: #fb4934; stop-opacity:1"/>
   <stop offset="25%" style="stop-color: #fabd2f; stop-opacity:1"/>
   <stop offset="50%" style="stop-color: #fe8019; stop-opacity:1"/>
   <stop offset="100%" style="stop-color: #689d6a; stop-opacity:1"/>
  </linearGradient>
  <linearGradient id="90ssummer" x1="0%" x2="0%" y1="0%" y2="100%">
   <stop offset="0%" style="stop-color: #b16286; stop-opacity:1"/>
   <stop offset="20%" style="stop-color: #8ec07c; stop-opacity:1"/>
   <stop offset="50%" style="stop-color: #fabd2f; stop-opacity:1"/>
   <stop offset="100%" style="stop-color: #458588; stop-opacity:1"/>
  </linearGradient>
  <linearGradient id="cyberneon" x1="0%" x2="0%" y1="0%" y2="100%">
    <stop offset="0" style="stop-color:#83a598; stop-opacity:1"/>
    <stop offset="1" style="stop-color:#b16286; stop-opacity:1"/>
  </linearGradient>
 </defs>
 <path style="fill:currentColor" class="ColorScheme-Text" d="M 13.761 2.015 C 13.841 1.724 14.039 1.478 14.302 1.334 C 14.568 1.186 14.881 1.152 15.17 1.235 C 15.464 1.315 15.711 1.512 15.856 1.773 C 16.005 2.038 16.039 2.348 15.955 2.636 L 12.732 13.855 C 12.385 15.064 11.644 15.134 11.079 14.01 L 8 7.894 L 4.921 14.01 C 4.356 15.134 3.615 15.064 3.268 13.855 L 0.045 2.636 C -0.039 2.348 -0.005 2.038 0.144 1.773 C 0.289 1.512 0.536 1.315 0.83 1.235 C 1.119 1.152 1.432 1.186 1.698 1.334 C 1.961 1.478 2.159 1.724 2.239 2.015 L 4.483 9.806 L 6.976 4.85 C 7.541 3.726 8.459 3.726 9.024 4.85 L 11.517 9.806 L 13.761 2.015 Z"/>
</svg>
